dist/img/intro/crypt-logo-1.svg

<svg width="34" height="34" viewBox="0 0 34 34" fill="none" xmlns="http://www.w3.org/2000/svg">
<g opacity="0.22">
<path d="M15.7451 17.1997L16.7991 18.2538C16.9097 18.3644 17.0891 18.3644 17.1997 18.2538L18.2538 17.1997C18.3644 17.0891 18.3644 16.9097 18.2538 16.7991L17.1997 15.7451C17.0891 15.6345 16.9097 15.6345 16.7991 15.7451L15.7451 16.7991C15.6345 16.9097 15.6345 17.0891 15.7451 17.1997V17.1997Z" fill="#CDCFFF"/>
<path d="M23.8291 17.1997L24.8832 18.2538C24.9938 18.3644 25.1732 18.3644 25.2838 18.2538L26.3378 17.1997C26.4484 17.0891 26.4484 16.9097 26.3378 16.7991L25.2838 15.7451C25.1732 15.6345 24.9938 15.6345 24.8832 15.7451L23.8291 16.7991C23.7184 16.9097 23.7184 17.0891 23.8291 17.1997V17.1997Z" fill="#CDCFFF"/>
<path d="M7.66212 17.1997L8.71617 18.2538C8.82679 18.3644 9.00617 18.3644 9.11678 18.2538L10.1708 17.1997C10.2815 17.0891 10.2815 16.9097 10.1708 16.7991L9.11678 15.7451C9.00617 15.6345 8.82679 15.6345 8.71617 15.7451L7.66212 16.7991C7.55143 16.9097 7.55143 17.0891 7.66212 17.1997V17.1997Z" fill="#CDCFFF"/>
<path d="M17.3999 23.2284C17.1787 23.4495 16.8199 23.4497 16.5986 23.2284L13.1577 19.7876C13.0471 19.6769 12.8677 19.6769 12.7571 19.7876L11.7031 20.8416C11.5925 20.9522 11.5925 21.1316 11.7031 21.2422L16.7988 26.3381C16.9095 26.4487 17.0888 26.4487 17.1995 26.3381L22.2953 21.2422C22.4059 21.1316 22.4059 20.9522 22.2953 20.8416L21.2412 19.7876C21.1305 19.6769 20.9512 19.6769 20.8405 19.7876L17.3999 23.2284Z" fill="#CDCFFF"/>
<path d="M29.0183 4.98143C22.3776 -1.65929 11.6101 -1.66567 4.96859 4.99346C-1.65499 11.6346 -1.66165 22.3754 4.98134 29.0184C11.6235 35.6606 22.3856 35.6643 29.0282 29.007C35.6552 22.3654 35.6613 11.6245 29.0183 4.98143V4.98143ZM16.9998 31.0218C9.26808 31.0218 2.9779 24.7316 2.9779 16.9999C2.9779 9.26823 9.26808 2.97799 16.9998 2.97799C24.416 2.97799 30.5198 8.74355 30.9924 16.0862C31.5143 24.3106 24.9893 31.0218 16.9998 31.0218V31.0218Z" fill="#CDCFFF"/>
<path d="M17.0002 4.11084C9.89324 4.11084 4.11133 9.89275 4.11133 16.9997C4.11133 24.1066 9.89324 29.8885 17.0002 29.8885C24.4066 29.8885 30.3385 23.6661 29.8619 16.1582C29.4272 9.40291 23.7776 4.11084 17.0002 4.11084V4.11084ZM10.3019 12.5573L16.5995 6.25973C16.8208 6.03843 17.1795 6.0385 17.4008 6.25973L23.6985 12.5573C23.9195 12.7785 23.9196 13.1373 23.6985 13.3586L21.4426 15.6144C21.2212 15.8357 20.8626 15.8356 20.6413 15.6144L17.2005 12.1736C17.0899 12.063 16.9105 12.063 16.7999 12.1736L13.359 15.6144C13.1378 15.8356 12.7791 15.8357 12.5578 15.6144L10.302 13.3586C10.0806 13.1373 10.0806 12.7786 10.3019 12.5573V12.5573ZM19.6566 17.4003L17.4008 19.6561C17.1795 19.8773 16.8208 19.8774 16.5995 19.6561L14.3437 17.4003C14.1224 17.179 14.1224 16.8203 14.3437 16.599L16.5995 14.3432C16.8208 14.1219 17.1795 14.122 17.4008 14.3432L19.6566 16.599C19.8778 16.8204 19.8778 17.179 19.6566 17.4003ZM8.51598 19.6562L6.26015 17.4004C6.03885 17.1791 6.03885 16.8204 6.26015 16.5991L8.51598 14.3433C8.73721 14.122 9.09591 14.122 9.31714 14.3433L11.573 16.5991C11.7943 16.8204 11.7943 17.1791 11.573 17.4004L9.31714 19.6562C9.09598 19.8774 8.73721 19.8774 8.51598 19.6562V19.6562ZM23.6985 21.4421L17.4008 27.7397C17.1795 27.9608 16.8208 27.961 16.5995 27.7397L10.3019 21.4421C10.0806 21.2208 10.0806 20.8621 10.3019 20.6408L12.5578 18.385C12.779 18.1637 13.1377 18.1637 13.3589 18.385L16.7998 21.8258C16.9104 21.9364 17.0898 21.9364 17.2004 21.8258L20.6413 18.385C20.8625 18.1638 21.2211 18.1637 21.4425 18.385L23.6984 20.6408C23.9195 20.862 23.9196 21.2208 23.6985 21.4421ZM27.7402 17.4003L25.4843 19.6561C25.263 19.8773 24.9044 19.8774 24.6831 19.6561L22.4273 17.4003C22.206 17.179 22.206 16.8203 22.4273 16.599L24.6831 14.3432C24.9044 14.1219 25.263 14.1219 25.4843 14.3432L27.7402 16.599C27.9614 16.8204 27.9614 17.179 27.7402 17.4003Z" fill="#CDCFFF"/>
<path d="M16.5995 10.7717C16.8205 10.5506 17.1794 10.5505 17.4007 10.7717L20.8415 14.2126C20.9521 14.3232 21.1315 14.3232 21.2421 14.2126L22.2963 13.1585C22.4069 13.0479 22.4069 12.8685 22.2963 12.7579L17.2004 7.66206C17.0898 7.55145 16.9104 7.55145 16.7998 7.66206L11.7041 12.7579C11.5934 12.8685 11.5934 13.0479 11.7041 13.1585L12.7581 14.2126C12.8687 14.3232 13.0481 14.3232 13.1587 14.2126L16.5995 10.7717Z" fill="#CDCFFF"/>
</g>
</svg>

<svg width="34" height="34" viewBox="0 0 34 34" fill="none" xmlns="http://www.w3.org/2000/svg"><g opacity=".22" fill="#CDCFFF"><path d="M15.745 17.2l1.054 1.054c.11.11.29.11.4 0l1.055-1.054c.11-.11.11-.29 0-.4L17.2 15.744a.283.283 0 00-.4 0L15.744 16.8c-.11.11-.11.29 0 .4zm8.085 0l1.053 1.054c.11.11.29.11.4 0l1.055-1.054c.11-.11.11-.29 0-.4l-1.054-1.055a.283.283 0 00-.4 0L23.828 16.8c-.11.11-.11.29 0 .4zm-16.168 0l1.054 1.054c.11.11.29.11.4 0l1.055-1.054c.11-.11.11-.29 0-.4l-1.054-1.055a.283.283 0 00-.4 0L7.661 16.8c-.11.11-.11.29 0 .4zm9.738 6.028a.567.567 0 01-.801 0l-3.441-3.44a.283.283 0 00-.4 0l-1.055 1.054c-.11.11-.11.29 0 .4l5.096 5.096c.11.11.29.11.4 0l5.096-5.096c.11-.11.11-.29 0-.4l-1.054-1.054a.283.283 0 00-.4 0l-3.441 3.44z"/><path d="M29.018 4.981c-6.64-6.64-17.408-6.647-24.05.012-6.623 6.642-6.63 17.382.013 24.025 6.643 6.643 17.405 6.646 24.047-.011 6.627-6.642 6.633-17.383-.01-24.026zM17 31.021c-7.732 0-14.022-6.29-14.022-14.021C2.978 9.268 9.268 2.978 17 2.978c7.416 0 13.52 5.766 13.992 13.108.522 8.225-6.003 14.936-13.992 14.936z"/><path d="M17 4.11C9.893 4.11 4.111 9.894 4.111 17s5.782 12.889 12.89 12.889a12.879 12.879 0 0012.86-13.73C29.428 9.402 23.779 4.11 17.002 4.11zm-6.698 8.447l6.297-6.297a.567.567 0 01.802 0l6.297 6.297a.567.567 0 010 .802l-2.255 2.255a.567.567 0 01-.802 0l-3.44-3.44a.283.283 0 00-.401 0l-3.441 3.44a.567.567 0 01-.801 0l-2.256-2.255a.566.566 0 010-.802zm9.355 4.843L17.4 19.656a.567.567 0 01-.802 0L14.345 17.4a.567.567 0 010-.801l2.255-2.256a.567.567 0 01.802 0l2.256 2.256a.567.567 0 010 .801zM8.516 19.656L6.26 17.4a.567.567 0 010-.8l2.256-2.257a.566.566 0 01.801 0l2.256 2.256a.567.567 0 010 .801l-2.256 2.256a.567.567 0 01-.801 0zm15.182 1.786l-6.297 6.298a.567.567 0 01-.802 0l-6.297-6.298a.567.567 0 010-.801l2.256-2.256a.566.566 0 01.8 0l3.442 3.44c.11.111.29.111.4 0l3.441-3.44a.567.567 0 01.802 0l2.255 2.256a.567.567 0 010 .801zM27.74 17.4l-2.256 2.256a.567.567 0 01-.8 0L22.426 17.4a.567.567 0 010-.801l2.256-2.256a.566.566 0 01.801 0L27.74 16.6a.567.567 0 010 .801z"/><path d="M16.6 10.772a.567.567 0 01.8 0l3.442 3.44c.11.111.29.111.4 0l1.054-1.053a.285.285 0 000-.401L17.2 7.662a.283.283 0 00-.4 0l-5.096 5.096c-.11.11-.11.29 0 .4l1.054 1.055c.11.11.29.11.4 0l3.441-3.441z"/></g></svg>
